X:428
T:Reel 428
L:1/8
M: 4/4
K: D Major
D2DEFDF/2G/2A|BABcdedB|AFE2FAdA|FAEFDB,A,B,|D2DEFDFA|BABcdedB|AFDEFAdB|AFEFD4:||:FEDEFdBA|FDD2EFDB,|A,B,DEF2dc|BABcd3B|AFF2FdcB|AFDEFDB,A,|D2DEFAdB|AFEFD3E:|.abc